src/logo-introspective.svg

<svg xmlns="http://www.w3.org/2000/svg" class="dibsvg-svg dibsvg-logo-introspective" viewBox="0 0 2612 208">
    <polygon points="19.5 203.7 0 203.7 0 3.9 19.5 3.9"/>
    <polygon points="185.8 206.9 62.8 40.5 62.8 203.9 56.8 203.9 56.8 0.7 179.7 165.5 179.7 3.9 185.7 3.9 185.7 206.9"/>
    <polygon points="336.5 9.9 284.1 9.9 284.1 203.9 264.6 203.9 264.6 9.9 211.6 9.9 211.6 3.8 336.5 3.8"/>
    <path d="M476.8 204h-21.2l-64-111.2c3.1.2 6.1.3 9 .3 28.5 0 42.7-13.4 42.7-40.1 0-29.5-17.9-44-53.7-43.5h-13V204h-19.3V4.1c3-.2 14.7-.3 35-.3 46.9-.4 70.4 15.7 70.4 48.5 0 12.9-4.2 23.4-12.5 31.6-8.4 8.2-19.7 13.2-34.1 14.9L476.8 204z"/>
    <path d="M685.2 103.8c0 28.8-9.2 52.8-27.7 72.1-18.8 20-42.8 29.9-72 29.9-29.2 0-53.3-10-72.2-29.9-18.4-19.3-27.5-43.4-27.5-72.1 0-28.7 9.2-52.7 27.5-72.1 18.9-20 43-29.9 72.2-29.9 29.2 0 53.2 10 72 29.9 18.4 19.4 27.7 43.4 27.7 72.1zm-21.5 0c0-27.6-7-50.5-21.1-68.7-14.7-19-33.8-28.5-57.2-28.5-23.5 0-42.6 9.5-57.4 28.5-14 18.2-21 41.1-21 68.7s7 50.5 21.1 68.7c14.7 19 33.8 28.5 57.4 28.5 23.4 0 42.5-9.5 57.2-28.5 14-18.3 21-41.2 21-68.7z"/>
    <path d="M806.8 154.7c0 15.8-6 28.5-17.9 38.1-10.7 8.7-23.4 13-37.9 13-18.6 0-35-5.5-49.3-16.5l6.1-9.1c12.9 12.2 27.3 18.4 43.2 18.4 11.8 0 21.5-3.5 28.9-10.5 7.5-7 11.2-16.7 11.2-29 0-21-13.6-39.1-40.9-54.2-30.6-17-45.3-37.7-44-62.1.6-12.3 5.9-22.2 15.6-29.8 9.5-7.2 21.1-10.8 35-10.8 6 .3 11.6 1.2 16.8 2.6 12.5 3.2 21.6 8.9 27.5 17l-7.2 7.4c-3.2-4.7-7.6-8.8-13.2-12.5C773.1 11.6 765 9 756.5 9c-9.7 0-17.9 2.7-24.7 8.1-6.8 5.4-10.5 12.4-11.1 20.8-1.2 16.6 10.5 32.2 35 46.6 20 11.7 33.9 23.6 41.7 35.9 6.3 9.8 9.4 21.2 9.4 34.3z"/>
    <path d="M955.5 58.1c0 15.3-6.5 28.2-19.4 38.8-12.9 10.6-28.3 15.8-46.2 15.5-4 0-7.3-.1-10-.2v-6h5.8c16 0 28.6-4.8 37.7-14.5 8.5-8.8 12.7-20.1 12.7-34 0-32.5-18.6-48.6-55.9-48.2h-19.8v194.3h-19.2V4.1c9.6-.2 24.5-.3 44.8-.3 46.4-.3 69.5 17.8 69.5 54.3z"/>
    <polygon points="1076.3 203.9 983.2 203.9 983.2 3.8 1072.9 3.8 1072.9 9.9 1002.7 9.9 1002.7 90.8 1066 90.8 1066 96.9 1002.7 96.9 1002.7 197.8 1076.3 197.8 1076.3 203.9"/>
    <path d="M1246.2 176.1c-15 19.8-35.4 29.7-61.1 29.7-24.4 0-45.7-10.2-64-30.6-18.3-20.4-27.5-44.2-27.5-71.5 0-27.7 8.3-51.5 24.8-71.5 16.9-20.4 37.3-30.6 61.4-30.6 23.5 0 43 6.7 58.5 20l-7.6 9c-14.1-15.2-31-22.9-50.9-22.9-19.4 0-35.1 9.4-46.9 28.2-11.3 17.8-16.9 40.4-16.9 67.7 0 26.8 6.5 49.3 19.7 67.7 13.2 18.8 29.7 28.2 49.5 28.2 22.9 0 40.4-10 52.7-30.1l8.3 6.7z"/>
    <polygon points="1384.7 9.9 1332.3 9.9 1332.3 203.9 1312.8 203.9 1312.8 9.9 1259.8 9.9 1259.8 3.8 1384.7 3.8"/>
    <polygon points="1425 203.7 1405.5 203.7 1405.5 3.9 1425 3.9"/>
    <polygon points="1609.1 4.1 1530.2 207.3 1450.8 4.1 1473.5 4.1 1538 170.4 1602.3 4.1"/>
    <polygon points="1726.4 203.9 1633.3 203.9 1633.3 3.8 1723 3.8 1723 9.9 1652.8 9.9 1652.8 90.8 1716.1 90.8 1716.1 96.9 1652.8 96.9 1652.8 197.8 1726.4 197.8"/>
    <g transform="translate(1865.000000, 67.000000)">
        <path d="M.8.7l21.3 27.6c7 9.2 14.1 18.4 21.3 27.6l21.3-27.6C71.8 19.1 78.8 9.9 86 .7v85h-7.2V25.1c0-.8 0-1.5.1-2.1 0-.7.1-1.3.2-2-5.6 8-11.4 15.8-17.5 23.5-6.1 7.7-12.1 15.4-18.1 23.2C38.2 60.8 33 54 27.8 47.2c-5.2-6.8-10.4-13.6-15.7-20.5l-2.4-3.1c-.3-.4-.6-.8-.9-1.3-.3-.5-.6-.9-.9-1.3.1.7.1 1.4.2 2 0 .7.1 1.4.1 2.1v60.6H1V.7H.8z"/>
        <path d="M195.7 85.8h-7.3c-2.4-5.6-4.8-11.2-7.1-16.8-2.3-5.6-4.7-11.2-7.1-16.8H145c-2.3 5.6-4.7 11.2-7 16.8-2.4 5.6-4.7 11.2-7.1 16.8h-7.2c6-14.3 12-28.4 18-42.5 6-14.1 12-28.3 18-42.5 6 14.3 12 28.4 18 42.5 6 14.1 12 28.2 18 42.5zm-34.9-65.4c-.2-.6-.3-1.2-.5-1.8-.2-.6-.4-1.2-.5-1.8-1.5 4.9-3.4 9.7-5.5 14.4-2.1 4.7-4.1 9.5-6.2 14.2h23.1c-1.8-4.2-3.5-8.3-5.2-12.5-1.7-4.2-3.4-8.4-5.2-12.5z"/>
        <path d="M269.4 57.9v-7h15.7c2.2 0 3.8.5 4.6 1.4.8 1 1.3 2.7 1.3 5.1v23.5c-3.1 1.8-6.4 3.2-9.9 4.2s-7.3 1.6-11.2 1.6c-5.7 0-11.1-1.1-16.2-3.3-5-2.2-9.4-5.1-13.2-8.9-3.8-3.8-6.7-8.2-8.9-13.2s-3.3-10.4-3.3-16.2c0-5.7 1.1-11.1 3.3-16.2 2.2-5.1 5.1-9.5 8.9-13.2 3.8-3.8 8.2-6.7 13.2-8.9s10.4-3.3 16.2-3.3c3.9 0 7.7.5 11.2 1.5 3.5 1 6.9 2.4 10.1 4.3-.6 1-1.3 2-2 3l-2.1 3c-5.2-3.2-10.9-4.8-17.2-4.8-4.7 0-9.2.9-13.3 2.7-4.1 1.8-7.8 4.3-10.9 7.5-3.1 3.2-5.6 6.9-7.4 11.1-1.8 4.2-2.7 8.7-2.7 13.4 0 4.8.9 9.3 2.7 13.5 1.8 4.2 4.2 7.8 7.3 11 3.1 3.1 6.7 5.6 10.9 7.4 4.1 1.8 8.6 2.7 13.3 2.7 5 0 9.7-1 14.1-3.1V61c0-1.1-.2-1.9-.5-2.4s-1.1-.8-2.4-.8h-11.6v.1z"/>
        <path d="M398.7 85.8h-7.3c-2.4-5.6-4.8-11.2-7.1-16.8-2.3-5.6-4.7-11.2-7.1-16.8H348c-2.3 5.6-4.7 11.2-7 16.8-2.4 5.6-4.7 11.2-7.1 16.8h-7.2c6-14.3 12-28.4 18-42.5 6-14.1 12-28.3 18-42.5 6 14.3 12 28.4 18 42.5 6 14.1 12 28.2 18 42.5zm-34.9-65.4c-.2-.6-.3-1.2-.5-1.8-.2-.6-.4-1.2-.5-1.8-1.5 4.9-3.4 9.7-5.5 14.4-2.1 4.7-4.1 9.5-6.2 14.2h23.1c-1.8-4.2-3.5-8.3-5.2-12.5-1.7-4.2-3.5-8.4-5.2-12.5z"/>
        <path d="M433.6 4.4h61.6v7c-8.8 11.3-17.6 22.5-26.3 33.7-8.7 11.2-17.5 22.4-26.3 33.7h56v7h-64.9v-7c8.8-11.3 17.6-22.5 26.3-33.7 8.7-11.2 17.5-22.4 26.4-33.7h-52.6"/>
        <polygon points="535.8 4.4 543.1 4.4 543.1 85.7 535.8 85.7"/>
        <path d="M655.8 4.4v85c-10.4-11.5-20.7-23-31-34.3-10.3-11.3-20.6-22.8-31-34.3-.4-.5-.8-1-1.1-1.5-.3-.5-.7-1-1.1-1.5.1.6.1 1.2.2 1.9 0 .6.1 1.2.2 1.9v64.3h-7.2V.9c10.4 11.7 20.7 23.3 31 34.9 10.3 11.5 20.6 23.2 31 34.9.4.5.8 1 1.1 1.5.3.5.7 1 1.1 1.5-.1-.6-.1-1.2-.2-1.9 0-.6-.1-1.2-.2-1.9V4.6h7.2v-.2z"/>
        <polygon points="695.2 85.8 695.2 4.5 744.4 4.5 744.4 11.5 702.5 11.5 702.5 41.5 739.9 41.5 739.9 48.4 702.5 48.4 702.5 79.1 746.1 79.1 746.1 86 695.2 86"/>
    </g>
</svg>

<svg xmlns="http://www.w3.org/2000/svg" class="dibsvg-svg dibsvg-logo-introspective" viewBox="0 0 2612 208">
    <polygon points="19.5 203.7 0 203.7 0 3.9 19.5 3.9"/>
    <polygon points="185.8 206.9 62.8 40.5 62.8 203.9 56.8 203.9 56.8 0.7 179.7 165.5 179.7 3.9 185.7 3.9 185.7 206.9"/>
    <polygon points="336.5 9.9 284.1 9.9 284.1 203.9 264.6 203.9 264.6 9.9 211.6 9.9 211.6 3.8 336.5 3.8"/>
    <path d="M476.8,204 L455.6,204 L391.6,92.8 C394.7,93 397.7,93.1 400.6,93.1 C429.1,93.1 443.3,79.7 443.3,53 C443.3,23.5 425.4,9 389.6,9.5 L376.6,9.5 L376.6,204 L357.3,204 L357.3,4.1 C360.3,3.9 372,3.8 392.3,3.8 C439.2,3.4 462.7,19.5 462.7,52.3 C462.7,65.2 458.5,75.7 450.2,83.9 C441.8,92.1 430.5,97.1 416.1,98.8 L476.8,204 L476.8,204 Z"/>
    <path d="M685.2,103.8 C685.2,132.6 676,156.6 657.5,175.9 C638.7,195.9 614.7,205.8 585.5,205.8 C556.3,205.8 532.2,195.8 513.3,175.9 C494.9,156.6 485.8,132.5 485.8,103.8 C485.8,75.1 495,51.1 513.3,31.7 C532.2,11.7 556.3,1.8 585.5,1.8 C614.7,1.8 638.7,11.8 657.5,31.7 C675.9,51.1 685.2,75.1 685.2,103.8 L685.2,103.8 L685.2,103.8 Z M663.7,103.8 C663.7,76.2 656.7,53.3 642.6,35.1 C627.9,16.1 608.8,6.6 585.4,6.6 C561.9,6.6 542.8,16.1 528,35.1 C514,53.3 507,76.2 507,103.8 C507,131.4 514,154.3 528.1,172.5 C542.8,191.5 561.9,201 585.5,201 C608.9,201 628,191.5 642.7,172.5 C656.7,154.2 663.7,131.3 663.7,103.8 L663.7,103.8 L663.7,103.8 Z"/>
    <path d="M806.8,154.7 C806.8,170.5 800.8,183.2 788.9,192.8 C778.2,201.5 765.5,205.8 751,205.8 C732.4,205.8 716,200.3 701.7,189.3 L707.8,180.2 C720.7,192.4 735.1,198.6 751,198.6 C762.8,198.6 772.5,195.1 779.9,188.1 C787.4,181.1 791.1,171.4 791.1,159.1 C791.1,138.1 777.5,120 750.2,104.9 C719.6,87.9 704.9,67.2 706.2,42.8 C706.8,30.5 712.1,20.6 721.8,13 C731.3,5.8 742.9,2.2 756.8,2.2 C762.8,2.5 768.4,3.4 773.6,4.8 C786.1,8 795.2,13.7 801.1,21.8 L793.9,29.2 C790.7,24.5 786.3,20.4 780.7,16.7 C773.1,11.6 765,9 756.5,9 C746.8,9 738.6,11.7 731.8,17.1 C725,22.5 721.3,29.5 720.7,37.9 C719.5,54.5 731.2,70.1 755.7,84.5 C775.7,96.2 789.6,108.1 797.4,120.4 C803.7,130.2 806.8,141.6 806.8,154.7 L806.8,154.7 Z"/>
    <path d="M955.5,58.1 C955.5,73.4 949,86.3 936.1,96.9 C923.2,107.5 907.8,112.7 889.9,112.4 C885.9,112.4 882.6,112.3 879.9,112.2 L879.9,106.2 L885.7,106.2 C901.7,106.2 914.3,101.4 923.4,91.7 C931.9,82.9 936.1,71.6 936.1,57.7 C936.1,25.2 917.5,9.1 880.2,9.5 L860.4,9.5 L860.4,203.8 L841.2,203.8 L841.2,4.1 C850.8,3.9 865.7,3.8 886,3.8 C932.4,3.5 955.5,21.6 955.5,58.1 L955.5,58.1 Z"/>
    <polygon points="1076.3 203.9 983.2 203.9 983.2 3.8 1072.9 3.8 1072.9 9.9 1002.7 9.9 1002.7 90.8 1066 90.8 1066 96.9 1002.7 96.9 1002.7 197.8 1076.3 197.8 1076.3 203.9"/>
    <path d="M1246.2,176.1 C1231.2,195.9 1210.8,205.8 1185.1,205.8 C1160.7,205.8 1139.4,195.6 1121.1,175.2 C1102.8,154.8 1093.6,131 1093.6,103.7 C1093.6,76 1101.9,52.2 1118.4,32.2 C1135.3,11.8 1155.7,1.6 1179.8,1.6 C1203.3,1.6 1222.8,8.3 1238.3,21.6 L1230.7,30.6 C1216.6,15.4 1199.7,7.7 1179.8,7.7 C1160.4,7.7 1144.7,17.1 1132.9,35.9 C1121.6,53.7 1116,76.3 1116,103.6 C1116,130.4 1122.5,152.9 1135.7,171.3 C1148.9,190.1 1165.4,199.5 1185.2,199.5 C1208.1,199.5 1225.6,189.5 1237.9,169.4 L1246.2,176.1 L1246.2,176.1 Z"/>
    <polygon points="1384.7 9.9 1332.3 9.9 1332.3 203.9 1312.8 203.9 1312.8 9.9 1259.8 9.9 1259.8 3.8 1384.7 3.8"/>
    <polygon points="1425 203.7 1405.5 203.7 1405.5 3.9 1425 3.9"/>
    <polygon points="1609.1 4.1 1530.2 207.3 1450.8 4.1 1473.5 4.1 1538 170.4 1602.3 4.1"/>
    <polygon points="1726.4 203.9 1633.3 203.9 1633.3 3.8 1723 3.8 1723 9.9 1652.8 9.9 1652.8 90.8 1716.1 90.8 1716.1 96.9 1652.8 96.9 1652.8 197.8 1726.4 197.8"/>
    <g transform="translate(1865.000000, 67.000000)">
        <path d="M0.8,0.7 C7.9,9.9 15,19.1 22.1,28.3 C29.1,37.5 36.2,46.7 43.4,55.9 C50.5,46.7 57.6,37.5 64.7,28.3 C71.8,19.1 78.8,9.9 86,0.7 L86,85.7 L78.8,85.7 L78.8,32.5 L78.8,25.1 C78.8,24.3 78.8,23.6 78.9,23 C78.9,22.3 79,21.7 79.1,21 C73.5,29 67.7,36.8 61.6,44.5 C55.5,52.2 49.5,59.9 43.5,67.7 C38.2,60.8 33,54 27.8,47.2 C22.6,40.4 17.4,33.6 12.1,26.7 L9.7,23.6 C9.4,23.2 9.1,22.8 8.8,22.3 C8.5,21.8 8.2,21.4 7.9,21 C8,21.7 8,22.4 8.1,23 C8.1,23.7 8.2,24.4 8.2,25.1 L8.2,85.7 L1,85.7 L1,0.7 L0.8,0.7 Z"/>
        <path d="M195.7,85.8 L188.4,85.8 C186,80.2 183.6,74.6 181.3,69 C179,63.4 176.6,57.8 174.2,52.2 L145,52.2 C142.7,57.8 140.3,63.4 138,69 C135.6,74.6 133.3,80.2 130.9,85.8 L123.7,85.8 C129.7,71.5 135.7,57.4 141.7,43.3 C147.7,29.2 153.7,15 159.7,0.8 C165.7,15.1 171.7,29.2 177.7,43.3 C183.7,57.4 189.7,71.5 195.7,85.8 L195.7,85.8 L195.7,85.8 Z M160.8,20.4 C160.6,19.8 160.5,19.2 160.3,18.6 C160.1,18 159.9,17.4 159.8,16.8 C158.3,21.7 156.4,26.5 154.3,31.2 C152.2,35.9 150.2,40.7 148.1,45.4 L171.2,45.4 C169.4,41.2 167.7,37.1 166,32.9 C164.3,28.7 162.6,24.5 160.8,20.4 L160.8,20.4 L160.8,20.4 Z"/>
        <path d="M269.4,57.9 L269.4,50.9 L285.1,50.9 C287.3,50.9 288.9,51.4 289.7,52.3 C290.5,53.3 291,55 291,57.4 L291,80.9 C287.9,82.7 284.6,84.1 281.1,85.1 C277.6,86.1 273.8,86.7 269.9,86.7 C264.2,86.7 258.8,85.6 253.7,83.4 C248.7,81.2 244.3,78.3 240.5,74.5 C236.7,70.7 233.8,66.3 231.6,61.3 C229.4,56.3 228.3,50.9 228.3,45.1 C228.3,39.4 229.4,34 231.6,28.9 C233.8,23.8 236.7,19.4 240.5,15.7 C244.3,11.9 248.7,9 253.7,6.8 C258.7,4.6 264.1,3.5 269.9,3.5 C273.8,3.5 277.6,4 281.1,5 C284.6,6 288,7.4 291.2,9.3 C290.6,10.3 289.9,11.3 289.2,12.3 C288.5,13.3 287.8,14.3 287.1,15.3 C281.9,12.1 276.2,10.5 269.9,10.5 C265.2,10.5 260.7,11.4 256.6,13.2 C252.5,15 248.8,17.5 245.7,20.7 C242.6,23.9 240.1,27.6 238.3,31.8 C236.5,36 235.6,40.5 235.6,45.2 C235.6,50 236.5,54.5 238.3,58.7 C240.1,62.9 242.5,66.5 245.6,69.7 C248.7,72.8 252.3,75.3 256.5,77.1 C260.6,78.9 265.1,79.8 269.8,79.8 C274.8,79.8 279.5,78.8 283.9,76.7 L283.9,63.6 L283.9,61 C283.9,59.9 283.7,59.1 283.4,58.6 C283.1,58.1 282.3,57.8 281,57.8 L269.4,57.8 L269.4,57.9 Z"/>
        <path d="M398.7,85.8 L391.4,85.8 C389,80.2 386.6,74.6 384.3,69 C382,63.4 379.6,57.8 377.2,52.2 L348,52.2 C345.7,57.8 343.3,63.4 341,69 C338.6,74.6 336.3,80.2 333.9,85.8 L326.7,85.8 C332.7,71.5 338.7,57.4 344.7,43.3 C350.7,29.2 356.7,15 362.7,0.8 C368.7,15.1 374.7,29.2 380.7,43.3 C386.7,57.4 392.7,71.5 398.7,85.8 L398.7,85.8 L398.7,85.8 Z M363.8,20.4 C363.6,19.8 363.5,19.2 363.3,18.6 C363.1,18 362.9,17.4 362.8,16.8 C361.3,21.7 359.4,26.5 357.3,31.2 C355.2,35.9 353.2,40.7 351.1,45.4 L374.2,45.4 C372.4,41.2 370.7,37.1 369,32.9 C367.3,28.7 365.5,24.5 363.8,20.4 L363.8,20.4 L363.8,20.4 Z"/>
        <path d="M433.6,4.4 L495.2,4.4 L495.2,11.4 C486.4,22.7 477.6,33.9 468.9,45.1 C460.2,56.3 451.4,67.5 442.6,78.8 L498.6,78.8 L498.6,85.8 L433.7,85.8 L433.7,78.8 C442.5,67.5 451.3,56.3 460,45.1 C468.7,33.9 477.5,22.7 486.4,11.4 L433.8,11.4"/>
        <polygon points="535.8 4.4 543.1 4.4 543.1 85.7 535.8 85.7"/>
        <path d="M655.8,4.4 L655.8,89.4 C645.4,77.9 635.1,66.4 624.8,55.1 C614.5,43.8 604.2,32.3 593.8,20.8 C593.4,20.3 593,19.8 592.7,19.3 C592.4,18.8 592,18.3 591.6,17.8 C591.7,18.4 591.7,19 591.8,19.7 C591.8,20.3 591.9,20.9 592,21.6 L592,85.9 L584.8,85.9 L584.8,0.9 C595.2,12.6 605.5,24.2 615.8,35.8 C626.1,47.3 636.4,59 646.8,70.7 C647.2,71.2 647.6,71.7 647.9,72.2 C648.2,72.7 648.6,73.2 649,73.7 C648.9,73.1 648.9,72.5 648.8,71.8 C648.8,71.2 648.7,70.6 648.6,69.9 L648.6,4.6 L655.8,4.6 L655.8,4.4 Z"/>
        <polygon points="695.2 85.8 695.2 4.5 744.4 4.5 744.4 11.5 702.5 11.5 702.5 41.5 739.9 41.5 739.9 48.4 702.5 48.4 702.5 79.1 746.1 79.1 746.1 86 695.2 86"/>
    </g>
</svg>
